X:1
T:Polsch
T:Polsch
T:Rasmus Storm (1760)
C:Rasmus Storm (1760)
%%score 1 2
L:1/8
M:3/4
K:D
V:1 treble 
V:2 treble 
V:1
|:"D" (3dcB A2"A" c>e |"D" (3dcB A2"A" c>e |"D" d>e (3fgf"A" (3ece |"D" d2 d4 ::"D" f>f f>f f>a | %5
"A7" g>f f>e e2 |"D" f>e d>d d>f |"A7" e>d d>c c>e |"D" (3dcB A2"A" c>e |"D" (3dcB A2"A" c>e | %10
"D" d>e (3fgf"A" (3ece |"D" d2 d4 :| %12
V:2
|: (3[FA][EA][DA] [A,D]2 [EA]>[EA] | (3[FA][EA][DA] [A,D]2 [EA]>[EA] | %2
 [FA]>A (3ded (3[EA][EA][EA] | [FA]2 [A,F]4 :: [Dd]>[Dd] [Dd]>[Dd] [Dd]>[Af] | %5
 [Ae]>d [de]>[ce] [ce]2 | d>A [FA]>[FA] [FA]>[FA] | [GA]>[FA] [FA]>[EA] [EA]2 | %8
 (3[FA][EA][DA] [A,D]2 [EA]>[EA] | (3[FA][EA][DA] [A,D]2 [EA]>[EA] | [FA]>A (3ded (3[EA][EA][EA] | %11
 [FA]2 [A,F]4 :| %12

